fs/airplane_take_off_20_filled.svg

<svg viewBox="0 0 20 20" fill="none" xmlns="http://www.w3.org/2000/svg" height="1em" width="1em">
  <path d="M11.2987 5.48742C11.4033 5.39002 11.5301 5.27764 11.6762 5.15917C12.2594 4.68629 13.1501 4.11648 14.168 4.01563C14.2785 4.00468 14.3904 3.99926 14.5036 4.00008C14.6938 4.00146 14.8773 4.02092 15.0542 4.05548C16.2922 4.29746 17.2006 5.27993 17.7173 5.9855C18.3116 6.79722 17.8176 7.80548 16.9796 8.07653L12.801 9.42822L9.70311 13.434C8.73343 14.6879 6.73479 13.7766 7.04566 12.2223L7.3386 10.7575L4.3214 11.7998C3.18482 12.1925 2 11.3482 2 10.1457V7.16011C2 7.08443 2.0064 7.01202 2.01853 6.94302C2.17619 6.04605 3.30197 5.72632 3.92143 6.32205C4.01674 6.4137 4.10005 6.52702 4.16602 6.66324L4.75857 7.88683L10.5639 5.95172C10.8215 5.86587 11.0666 5.70345 11.2987 5.48742ZM5.38387 6.62431L9.11402 5.38092L7.5078 4.27963C7.24214 4.09748 6.92757 4 6.60546 4C5.27888 4 4.53159 5.52466 5.34425 6.57319L5.38387 6.62431ZM2.75 16.5C2.33579 16.5 2 16.8358 2 17.25C2 17.6642 2.33579 18 2.75 18H17.25C17.6642 18 18 17.6642 18 17.25C18 16.8358 17.6642 16.5 17.25 16.5H2.75Z" fill="#212121"/>
</svg>

<svg viewBox="0 0 20 20" fill="none" xmlns="http://www.w3.org/2000/svg" height="1em" width="1em">
  <path d="M11.299 5.487a7.33 7.33 0 0 1 .377-.328c.583-.473 1.474-1.043 2.492-1.143a2.978 2.978 0 0 1 .886.04c1.238.241 2.147 1.224 2.663 1.93.595.811.1 1.82-.737 2.09L12.8 9.429l-3.098 4.006c-.97 1.254-2.968.343-2.657-1.212l.293-1.464L4.32 11.8A1.75 1.75 0 0 1 2 10.146V7.16c0-.076.006-.148.019-.217.157-.897 1.283-1.217 1.902-.62.096.09.18.204.245.34l.593 1.224 5.805-1.935c.258-.086.503-.249.735-.465ZM5.384 6.624l3.73-1.243L7.508 4.28A1.596 1.596 0 0 0 6.605 4C5.28 4 4.532 5.525 5.345 6.573l.039.051ZM2.75 16.5a.75.75 0 0 0 0 1.5h14.5a.75.75 0 0 0 0-1.5H2.75Z" fill="#212121"/>
</svg>
